public/images/jobs.svg

<svg viewBox="0 0 24 24" preserveAspectRatio="xMinYMin meet" class="nav-icon" xmlns="http://www.w3.org/2000/svg"><path d="M2 13h20v6a1 1 0 01-1 1H3a1 1 0 01-1-1v-6zm20-5v4H2V8a1 1 0 011-1h4V6a3 3 0 013-3h4a3 3 0 013 3v1h4a1 1 0 011 1zm-7-2a1 1 0 00-1-1h-4a1 1 0 00-1 1v1h6V6z" class="active-item"/><path d="M21 7h-4V6a3 3 0 00-3-3h-4a3 3 0 00-3 3v1H3a1 1 0 00-1 1v11a1 1 0 001 1h18a1 1 0 001-1V8a1 1 0 00-1-1zM9 6a1 1 0 011-1h4a1 1 0 011 1v1H9V6zm11 12H4v-5h16v5zm0-6H4V9h16v3z" class="inactive-item" fill="currentColor"/></svg>

<svg viewBox="0 0 24 24" x="0" y="0" preserveAspectRatio="xMinYMin meet" class="nav-icon" focusable="false" xmlns="http://www.w3.org/2000/svg"><path d="M2,13H22v6a1,1,0,0,1-1,1H3a1,1,0,0,1-1-1V13ZM22,8v4H2V8A1,1,0,0,1,3,7H7V6a3,3,0,0,1,3-3h4a3,3,0,0,1,3,3V7h4A1,1,0,0,1,22,8ZM15,6a1,1,0,0,0-1-1H10A1,1,0,0,0,9,6V7h6V6Z" class="active-item" style="fill-opacity: 1"/><path d="M21,7H17V6a3,3,0,0,0-3-3H10A3,3,0,0,0,7,6V7H3A1,1,0,0,0,2,8V19a1,1,0,0,0,1,1H21a1,1,0,0,0,1-1V8A1,1,0,0,0,21,7ZM9,6a1,1,0,0,1,1-1h4a1,1,0,0,1,1,1V7H9V6ZM20,18H4V13H20v5Zm0-6H4V9H20v3Z" class="inactive-item" style="fill: currentColor"/></svg>
